public/static/img/common/mini_close.svg

<svg width="16" height="16" viewBox="0 0 16 16" fill="none" xmlns="http://www.w3.org/2000/svg">
<circle cx="8" cy="8" r="8" fill="#A4ACB9"/>
<path d="M7.99997 7.46422L5.52417 4.98598L5.52441 4.98574L5.51759 4.97987C5.4456 4.91786 5.35287 4.88531 5.25791 4.88875C5.16296 4.89219 5.07282 4.93138 5.00551 4.99844C4.93821 5.06549 4.89868 5.15548 4.89479 5.25041C4.8909 5.34534 4.92295 5.43826 4.98454 5.5106L4.98427 5.51083L4.99084 5.51744L7.46704 8.00603L4.99153 10.4757C4.99146 10.4758 4.99139 10.4758 4.99131 10.4759C4.95608 10.5108 4.9281 10.5523 4.909 10.5981C4.88986 10.644 4.88 10.6932 4.88 10.7429C4.88 10.7926 4.88986 10.8418 4.909 10.8876C4.92809 10.9334 4.95605 10.9749 4.99126 11.0098C5.06194 11.0804 5.15771 11.12 5.25759 11.12C5.35756 11.12 5.45342 11.0803 5.52412 11.0096L5.52417 11.0095L8.00003 8.53125L10.4759 11.0079L10.4759 11.0079C10.5466 11.0786 10.6424 11.1183 10.7424 11.1183C10.8424 11.1183 10.9382 11.0786 11.0089 11.0079L10.9241 10.923M7.99997 7.46422L8.08484 8.44636L10.5607 10.923C10.6089 10.9712 10.6743 10.9983 10.7424 10.9983C10.8105 10.9983 10.8759 10.9712 10.9241 10.923M7.99997 7.46422L10.4758 4.98429L10.4788 4.98126L10.4789 4.98132C10.5504 4.91465 10.6449 4.87833 10.7427 4.88006C10.8404 4.88178 10.9336 4.92142 11.0027 4.99057C11.0718 5.05971 11.1113 5.15298 11.113 5.2507C11.1148 5.34842 11.0785 5.44302 11.0119 5.51456L11.0092 5.51749L11.0092 5.51744L8.53299 8.006L11.0085 10.474M7.99997 7.46422L11.0085 10.474M10.9241 10.923C10.9481 10.8992 10.9672 10.8709 10.9803 10.8397C10.9933 10.8085 11 10.775 11 10.7412C11 10.7073 10.9933 10.6738 10.9803 10.6426C10.9672 10.6114 10.9481 10.5831 10.9241 10.5593M10.9241 10.923L11.0085 11.0083C11.0438 10.9734 11.0719 10.9318 11.091 10.8859C11.1101 10.8401 11.12 10.7909 11.12 10.7412C11.12 10.6915 11.1101 10.6422 11.091 10.5964C11.0719 10.5506 11.0439 10.5091 11.0087 10.4742L11.0088 10.4743L10.9241 10.5593M10.9241 10.5593L11.0085 10.474M10.9241 10.5593L11.0085 10.474M5.43928 10.9247L7.91519 8.44638L7.63663 8.00634L5.07591 10.561C5.05186 10.5848 5.03277 10.6131 5.01974 10.6443C5.00671 10.6755 5 10.709 5 10.7429C5 10.7767 5.00671 10.8102 5.01974 10.8414C5.03277 10.8726 5.05186 10.901 5.07591 10.9247C5.12411 10.9729 5.18946 11 5.25759 11C5.32572 11 5.39107 10.9729 5.43928 10.9247Z" fill="#161616" stroke="#161616" stroke-width="0.24"/>
</svg>

<svg width="16" height="16" fill="none" xmlns="http://www.w3.org/2000/svg"><circle cx="8" cy="8" r="8" fill="#A4ACB9"/><path d="M8 7.464 5.524 4.986l-.006-.006a.377.377 0 0 0-.533.53l.006.007 2.476 2.489-2.475 2.47a.375.375 0 0 0 0 .534.377.377 0 0 0 .532 0L8 8.53l2.476 2.477a.377.377 0 0 0 .533 0l-.085-.085M8 7.464l.085.982 2.476 2.477a.257.257 0 0 0 .363 0M8 7.464l2.476-2.48.003-.003a.377.377 0 0 1 .533.534l-.003.002-2.476 2.489 2.476 2.468M8 7.464l3.008 3.01m-.084.449a.258.258 0 0 0 .056-.28.258.258 0 0 0-.056-.084m0 .364.085.085a.375.375 0 0 0 0-.534l-.085.085m0 0 .085-.085m-.085.085.085-.085m-5.57.45 2.476-2.478-.278-.44-2.561 2.555a.256.256 0 0 0 .182.439.257.257 0 0 0 .181-.075Z" fill="#161616" stroke="#161616" stroke-width=".24"/></svg>
